X:27
T:Polonäs efter Pehr Andersson Bild 10 nr 27
S:efter Pehr Andersson
B:Spelmansbok Ma 1 efter Pehr Andersson daterad 1731
B:FMK - katalog Ma1 bild 10
O:Måstorp, Närke
R:Slängpolska
Z:Nils L
M:3/4
L:1/8
K:Em
g2 gf ga | f2 fe fg | "^fjärdedelsnot?"e^d eg fe | ^df B4 |
B2 e^d ef | ga gf ed | cB A2 GF | G2 G4 ::
E2 EF GA | B2 B4 | e2 eg fe | ^d2 B4 |
B2 e^d ef | ga gf gb | ab ge f^d | e2 e4 :|

